tools/download-figma-icons/icons/outlined-medium/emob-wall.svg

<svg width="24" height="24" viewBox="0 0 24 24" fill="none" xmlns="http://www.w3.org/2000/svg">
<path fill-rule="evenodd" clip-rule="evenodd" d="M5.24999 3.75H5.24849L5.24999 6H11.25V3.75H5.24999ZM11.25 7.5H5.25C4.42275 7.5 3.75 6.82725 3.75 6V3.75C3.75 2.92275 4.42275 2.25 5.25 2.25H11.25C12.0773 2.25 12.75 2.92275 12.75 3.75V6C12.75 6.82725 12.0773 7.5 11.25 7.5ZM1.49999 10.5H1.49849L1.49999 12.75H5.24999V10.5H1.49999ZM5.25 14.25H1.5C0.67275 14.25 0 13.5772 0 12.75V10.5C0 9.67275 0.67275 9 1.5 9H5.25C6.07725 9 6.75 9.67275 6.75 10.5V12.75C6.75 13.5772 6.07725 14.25 5.25 14.25ZM15.7485 3.75H15.75H18.75V6H15.75L15.7485 3.75ZM15.75 7.5H18.75C19.5772 7.5 20.25 6.82725 20.25 6V3.75C20.25 2.92275 19.5772 2.25 18.75 2.25H15.75C14.9228 2.25 14.25 2.92275 14.25 3.75V6C14.25 6.82725 14.9228 7.5 15.75 7.5ZM9.75 10.5V12.75H14.2515L14.25 10.5H9.75ZM14.25 14.25H9.75C8.92275 14.25 8.25 13.5772 8.25 12.75V10.5C8.25 9.67275 8.92275 9 9.75 9H14.25C15.0772 9 15.75 9.67275 15.75 10.5V12.75C15.75 13.5772 15.0772 14.25 14.25 14.25ZM18.75 12.75V10.5H22.5L22.5015 12.75H18.75ZM18.75 14.25H22.5C23.3272 14.25 24 13.5772 24 12.75V10.5C24 9.67275 23.3272 9 22.5 9H18.75C17.9228 9 17.25 9.67275 17.25 10.5V12.75C17.25 13.5772 17.9228 14.25 18.75 14.25ZM12.75 17.25V19.5H18.7515L18.75 17.25H12.75ZM18.75 21H12.75C11.9228 21 11.25 20.3272 11.25 19.5V17.25C11.25 16.4228 11.9228 15.75 12.75 15.75H18.75C19.5773 15.75 20.25 16.4228 20.25 17.25V19.5C20.25 20.3272 19.5773 21 18.75 21ZM5.25 19.5V17.25H8.25L8.2515 19.5H5.25ZM5.25 21H8.25C9.07725 21 9.75 20.3272 9.75 19.5V17.25C9.75 16.4228 9.07725 15.75 8.25 15.75H5.25C4.42275 15.75 3.75 16.4228 3.75 17.25V19.5C3.75 20.3272 4.42275 21 5.25 21Z" fill="black"/>
</svg>

<svg xmlns="http://www.w3.org/2000/svg" width="24" height="24" fill="none" viewBox="0 0 24 24"><path fill="currentColor" fill-rule="evenodd" d="M5.25 3.75h-.002L5.25 6h6V3.75zm6 3.75h-6c-.827 0-1.5-.673-1.5-1.5V3.75c0-.827.673-1.5 1.5-1.5h6c.827 0 1.5.673 1.5 1.5V6c0 .827-.673 1.5-1.5 1.5m-9.75 3h-.002l.002 2.25h3.75V10.5zm3.75 3.75H1.5c-.827 0-1.5-.673-1.5-1.5V10.5C0 9.673.673 9 1.5 9h3.75c.827 0 1.5.673 1.5 1.5v2.25c0 .827-.673 1.5-1.5 1.5m10.499-10.5h3V6h-3zm.001 3.75h3c.827 0 1.5-.673 1.5-1.5V3.75c0-.827-.673-1.5-1.5-1.5h-3c-.827 0-1.5.673-1.5 1.5V6c0 .827.673 1.5 1.5 1.5m-6 3v2.25h4.502l-.002-2.25zm4.5 3.75h-4.5c-.827 0-1.5-.673-1.5-1.5V10.5c0-.827.673-1.5 1.5-1.5h4.5c.827 0 1.5.673 1.5 1.5v2.25c0 .827-.673 1.5-1.5 1.5m4.5-1.5V10.5h3.75l.002 2.25zm0 1.5h3.75c.827 0 1.5-.673 1.5-1.5V10.5c0-.827-.673-1.5-1.5-1.5h-3.75c-.827 0-1.5.673-1.5 1.5v2.25c0 .827.673 1.5 1.5 1.5m-6 3v2.25h6.002l-.002-2.25zm6 3.75h-6c-.827 0-1.5-.673-1.5-1.5v-2.25c0-.827.673-1.5 1.5-1.5h6c.827 0 1.5.673 1.5 1.5v2.25c0 .827-.673 1.5-1.5 1.5m-13.5-1.5v-2.25h3l.002 2.25zm0 1.5h3c.827 0 1.5-.673 1.5-1.5v-2.25c0-.827-.673-1.5-1.5-1.5h-3c-.827 0-1.5.673-1.5 1.5v2.25c0 .827.673 1.5 1.5 1.5" clip-rule="evenodd"/></svg>
